**kern	**kern
*staff2	*staff1
*clefF4	*clefG2
*k[b-]	*k[b-]
*M2/4	*M2/4
*F:	*F:
=	=
8d	8ddL 8ff# 8aa
4f#	8ddJ 8ff# 8aa
.	8ddL 8ff# 8aa
8d	8ddJ 8ff# 8aa
=258	=258
4a	8cc#L 8ee 8aa
.	8cc#J 8ee 8aa
(16g#LL	8cc#L 8ee 8aa
16a	.
16b	8cc#J 8ee 8aa
16aJJ)	.
=259	=259
8g'L	8cc#L 8ee 8aa
8g'	8cc#J 8ee 8aa
8e'	8cc#L 8ee 8aa
8a'J	8cc#J 8ee 8aa
=260	=260
8f#'L	8dd'L 8ff#' 8aa'
8d'J	8dd'J 8ff#' 8aa'
*	*^
4r	(16gg#LL	4r
.	16aa	.
.	16bb	.
.	16aaJJ)	.
*	*v	*v
=261	=261
8c#L 8e 8a	8gg'L
8c#J 8e 8a	8ee'J
8c#L 8e 8a	4r
8c#J 8e 8a	.
*	*clefF4
=262	=262
8dL 8f# 8a	8F#'L
8dJ 8f# 8a	8D'J
8dL 8f# 8a	4r
8dJ 8f# 8a	.
*	*clefG2
=263	=263
8c#L 8e 8a	8gg'L
8c#J 8e 8a	8ee'J
8c#L 8e 8a	4r
8c#J 8e 8a	.
*	*clefF4
=264	=264
8dL 8f 8a	8Fn'L
8dJ 8f 8a	8D'J
8dL 8f 8a	4r
8dJ 8f 8a	.
*	*clefG2
=265	=265
8AL 8c 8f	8ee-'L
8AJ 8c 8f	8cc'J
8AL 8c 8f	4r
8AJ 8c 8f	.
*	*clefF4
=266	=266
8B-L 8d 8f	8DL
8B-J 8d 8f	8BB-J
8B-L 8d 8f	4r
8B-J 8d 8f	.
*clefF4	*clefG2
=267	=267
8F#L 8A 8d	8ccL
8F#J 8A 8d	8aJ
8F#L 8A 8d	4r
8F#J 8A 8d	.
*	*clefF4
=268	=268
8GL 8B- 8d	8BB-L
8GJ 8B- 8d	8GGJ
8GL 8B- 8d	4r
8GJ 8B- 8d	.
*	*clefG2
=269	=269
8EL 8G 8c	8b-L
8EJ 8G 8c	8gJ
8EL 8G 8c	4r
8EJ 8G 8c	.
*	*clefF4
=270	=270
8FL 8A 8c	8AAL
8FJ 8A 8c	8FFJ
8FL 8A 8c	4r
8FJ 8A 8c	.
*	*clefG2
=271	=271
8GL 8B- 8c	8eeL
8GJ 8B- 8c	8ccJ
8GL 8B- 8c	4r
8GJ 8B- 8c	.
*	*clefF4
=272	=272
8FL 8A 8c	8FFL
8FJ 8A 8c	8CCJ
8FL 8A 8c	4r
8FJ 8A 8c	.
*	*clefG2
=273	=273
8EL 8G 8c	8b-L
8EJ 8G 8c	8gJ
8EL 8G 8c	4r
8EJ 8G 8c	.
*	*clefF4
=274	=274
8FL 8A 8c	8AAL
8FJ 8A 8c	8FFJ
8FL 8A 8c	4r
8FJ 8A 8c	.
*	*clefG2
=275	=275
8GL 8B- 8c	8eeL
8GJ 8B- 8c	8ccJ
8GL 8B- 8c	4r
8GJ 8B- 8c	.
*	*clefF4
=276	=276
8FL 8A 8c	8FFL
8FJ 8A 8c	8CCJ
8FL 8A 8c	4r
8FJ 8A 8c	.
*	*clefG2
=277	=277
8EL 8G 8c	8ggL
8EJ 8G 8c	8ccJ
8EL 8G 8c	4r
8EJ 8G 8c	.
*	*clefF4
=278	=278
8FL 8A 8c	8AAL
8FJ 8A 8c	8CCJ
8FL 8A 8c	4r
8FJ 8A 8c	.
*	*clefG2
=279	=279
8FL 8G 8d	8bbL
8FJ 8G 8d	8ccJ
8FL 8G 8d	4r
8FJ 8G 8d	.
*	*clefF4
=280	=280
8EL 8G 8c	8CL
8EJ 8G 8c	8CCJ
8EL 8G 8c	4r
8EJ 8G 8c	.
*	*clefG2
=281	=281
8FL 8G 8d	8bbL
8FJ 8G 8d	8ccJ
8FL 8G 8d	4r
8FJ 8G 8d	.
*	*clefF4
=282	=282
8EL 8G 8c	8CL
8EJ 8G 8c	8CCJ
8EL 8G 8c	4r
8EJ 8G 8c	.
*	*clefG2
=283	=283
8FL 8G 8d	8bbL
8FJ 8G 8d	8ccJ
8FL 8G 8d	4r
8FJ 8G 8d	.
=284	=284
8EL 8G 8c	8cccL
8EJ 8G 8c	8ccJ
8EL 8G 8c	4r
8EJ 8G 8c	.
=285	=285
8DL 8F 8B-	8bb-L
8DJ 8F 8B-	8b-J
8DL 8F 8B-	4r
8DJ 8F 8B-	.
=286	=286
8CL 8E 8A	8aaL
8CJ 8E 8A	8aJ
8CL 8E 8A	4r
8CJ 8E 8A	.
=287	=287
8BB-L 8D 8G	8ggL
8BB-J 8D 8G	8gJ
8BB-L 8D 8G	4r
8BB-J 8D 8G	.
=288	=288
4AA' 4C' 4F'	16ffLL
.	16cc
.	16a
.	16fJJ
4BB-' 4D' 4G'	16ddLL
.	16b-
.	16g
.	16dJJ
=289	=289
4C' 4F' 4A'	16ccLL
.	16a
.	16f
.	16cJJ
4CC 4C	16eLL
.	16c
.	16B-
.	16GJJ
=290	=290
*-	*-
